img/faqs/provider-icon.svg

<svg height="43" viewBox="0 0 55 43" width="55" xmlns="http://www.w3.org/2000/svg"><g fill="#ff5722" fill-rule="evenodd"><path d="m5.39856802 31.8569739v-17.1731542h-4.06443914c-.86873508 0-1.33412888-.5247127-1.33412888-1.3768623v-2.556449c0-.85214961.4653938-1.31178163 1.33412888-1.31178163h4.19888624l1.20175019-7.53715178c.19649961-1.24670104.93078759-1.90157499 2.13253779-1.90157499h1.4003182c1.2658711 0 1.9980907.78706901 1.9980907 2.03377004v7.40495673h9.1341289c.8645982 0 1.3341289.45963202 1.3341289 1.31178163v2.556449c0 .8521496-.4695307 1.3768623-1.3341289 1.3768623h-9.1341289v17.5656719c0 3.5428274 1.7333333 4.9176559 3.8658711 4.9176559 2.0684169 0 3.9341289-1.1816204 3.9341289-3.5407936 0-.2623564 0-.7199546-.1344471-1.2426335-.1303102-.9192641.2688942-1.5110912 1.1996818-1.5110912h3.0674622c.8025458 0 1.4023866.3315046 1.5347653 1.1816204.2668258 1.114506.2668258 2.3591733.2668258 2.4242539 0 4.917656-3.5990453 8.5214965-10.002864 8.5214965-5.3323786 0-10.59856798-2.6866102-10.59856798-11.1430261"/><path d="m34.398568 31.8569739v-17.1731542h-4.0644391c-.8687351 0-1.3341289-.5247127-1.3341289-1.3768623v-2.556449c0-.85214961.4653938-1.31178163 1.3341289-1.31178163h4.1988862l1.2017502-7.53715178c.1964996-1.24670104.9307876-1.90157499 2.1325378-1.90157499h1.4003182c1.2658711 0 1.9980907.78706901 1.9980907 2.03377004v7.40495673h9.1341289c.8645982 0 1.3341289.45963202 1.3341289 1.31178163v2.556449c0 .8521496-.4695307 1.3768623-1.3341289 1.3768623h-9.1341289v17.5656719c0 3.5428274 1.7333333 4.9176559 3.8658711 4.9176559 2.0684169 0 3.9341289-1.1816204 3.9341289-3.5407936 0-.2623564 0-.7199546-.1344471-1.2426335-.1303102-.9192641.2688942-1.5110912 1.1996818-1.5110912h3.0674622c.8025458 0 1.4023866.3315046 1.5347653 1.1816204.2668258 1.114506.2668258 2.3591733.2668258 2.4242539 0 4.917656-3.5990453 8.5214965-10.002864 8.5214965-5.3323786 0-10.598568-2.6866102-10.598568-11.1430261"/></g></svg>

<?xml version="1.0" encoding="UTF-8"?>
<svg width="55px" height="43px" viewBox="0 0 55 43" version="1.1" xmlns="http://www.w3.org/2000/svg" xmlns:xlink="http://www.w3.org/1999/xlink">
    <!-- Generator: Sketch 51.3 (57544) - http://www.bohemiancoding.com/sketch -->
    <title>provider-icon</title>
    <desc>Created with Sketch.</desc>
    <defs></defs>
    <g id="FAQs-&amp;-Account" stroke="none" stroke-width="1" fill="none" fill-rule="evenodd">
        <g id="TT-FAQs" transform="translate(-544.000000, -1074.000000)" fill="#FF5722">
            <g id="provider-icon" transform="translate(544.000000, 1074.000000)">
                <path d="M5.39856802,31.8569739 L5.39856802,14.6838197 L1.33412888,14.6838197 C0.465393795,14.6838197 0,14.159107 0,13.3069574 L0,10.7505084 C0,9.89835879 0.465393795,9.43872677 1.33412888,9.43872677 L5.53301512,9.43872677 L6.73476531,1.90157499 C6.93126492,0.654873954 7.6655529,0 8.8673031,0 L10.2676213,0 C11.5334924,0 12.265712,0.787069006 12.265712,2.03377004 L12.265712,9.43872677 L21.3998409,9.43872677 C22.2644391,9.43872677 22.7339698,9.89835879 22.7339698,10.7505084 L22.7339698,13.3069574 C22.7339698,14.159107 22.2644391,14.6838197 21.3998409,14.6838197 L12.265712,14.6838197 L12.265712,32.2494916 C12.265712,35.792319 13.9990453,37.1671475 16.1315831,37.1671475 C18.2,37.1671475 20.065712,35.9855271 20.065712,33.6263539 C20.065712,33.3639975 20.065712,32.9063993 19.9312649,32.3837204 C19.8009547,31.4644563 20.2001591,30.8726292 21.1309467,30.8726292 L24.1984089,30.8726292 C25.0009547,30.8726292 25.6007955,31.2041338 25.7331742,32.0542496 C26,33.1687556 26,34.4134229 26,34.4785035 C26,39.3961595 22.4009547,43 15.997136,43 C10.6647574,43 5.39856802,40.3133898 5.39856802,31.8569739" id="Fill-1"></path>
                <path d="M34.398568,31.8569739 L34.398568,14.6838197 L30.3341289,14.6838197 C29.4653938,14.6838197 29,14.159107 29,13.3069574 L29,10.7505084 C29,9.89835879 29.4653938,9.43872677 30.3341289,9.43872677 L34.5330151,9.43872677 L35.7347653,1.90157499 C35.9312649,0.654873954 36.6655529,0 37.8673031,0 L39.2676213,0 C40.5334924,0 41.265712,0.787069006 41.265712,2.03377004 L41.265712,9.43872677 L50.3998409,9.43872677 C51.2644391,9.43872677 51.7339698,9.89835879 51.7339698,10.7505084 L51.7339698,13.3069574 C51.7339698,14.159107 51.2644391,14.6838197 50.3998409,14.6838197 L41.265712,14.6838197 L41.265712,32.2494916 C41.265712,35.792319 42.9990453,37.1671475 45.1315831,37.1671475 C47.2,37.1671475 49.065712,35.9855271 49.065712,33.6263539 C49.065712,33.3639975 49.065712,32.9063993 48.9312649,32.3837204 C48.8009547,31.4644563 49.2001591,30.8726292 50.1309467,30.8726292 L53.1984089,30.8726292 C54.0009547,30.8726292 54.6007955,31.2041338 54.7331742,32.0542496 C55,33.1687556 55,34.4134229 55,34.4785035 C55,39.3961595 51.4009547,43 44.997136,43 C39.6647574,43 34.398568,40.3133898 34.398568,31.8569739" id="Fill-1-Copy-7"></path>
            </g>
        </g>
    </g>
</svg>
